X:10     
T:Mon amant de St Jean (Valse musette)
C:Emile Carrara
I: Musette standard, WW2, after a song, rights for public performance
Q:1/4=150
M:3/4
K:Em
z2 E2 F2 |"Em"G2 G2 G2 |G2 F2 E2 |G6 |
G2 F2 G2 |"Am"A6 |A2 G2 F2 |"Em"GF E4 |
E2 E2 F2 |G2 G2 G2 |G2 F2 E2 |"C"c6 |
"D"A2 B2 c2 |"G"B4 A2 |"B7"G4 F2 |"Em"E6 |
E2 z2 E2 ||"Em"B2 G2 E2 |B2 G2 E2 |B2 B4 |
B4 B2 |"Am"c2 c2 c2 |"D"A2 B2 c2 |"G"B6 |
B2 z2 E2 |"B"F2 F2 F2 |F4 F2 |"Em"G2 G2 G2 |
G4 G2 |"C"G2 F2 G2 |"Am"A2 G2 A2 |"B7"B6 |
B4 z2 |"Em"B6 |G2 F2 E2 |B6 |
G2 F2 E2 |B2 ^A2 B2 |"C"e2 d2 c2 |"G"B6 |
B4 z2 |"B7"A6 |F2 G2 A2 |"Em"G6 |
E2 F2 G2 |"B7"F6 |^D2 G2 F2 |"Em"E6 ||]
